src/assets/fleet-icons/full-screen.svg

<svg width="24" height="24" viewBox="0 0 24 24" fill="none" xmlns="http://www.w3.org/2000/svg">
    <path
        d="M4.75 6.75V17.25C4.75 18.3546 5.64543 19.25 6.75 19.25H17.25C18.3546 19.25 19.25 18.3546 19.25 17.25V6.75C19.25 5.64543 18.3546 4.75 17.25 4.75H6.75C5.64543 4.75 4.75 5.64543 4.75 6.75Z"
        stroke="white" stroke-width="1.5" stroke-linecap="round" stroke-linejoin="round" />
    <path d="M12.25 11.75L7.75 16.25" stroke="white" stroke-width="1.5" stroke-linecap="round"
        stroke-linejoin="round" />
    <path d="M11.75 12.25L16.25 7.75" stroke="white" stroke-width="1.5" stroke-linecap="round"
        stroke-linejoin="round" />
    <path d="M7.75 12.75V16.25H11.25" stroke="white" stroke-width="1.5" stroke-linecap="round"
        stroke-linejoin="round" />
    <path d="M16.25 11.25V7.75H12.75" stroke="white" stroke-width="1.5" stroke-linecap="round"
        stroke-linejoin="round" />
</svg>

<svg width="24" height="24" fill="none" xmlns="http://www.w3.org/2000/svg">
    <path
        d="M4.75 6.75v10.5a2 2 0 0 0 2 2h10.5a2 2 0 0 0 2-2V6.75a2 2 0 0 0-2-2H6.75a2 2 0 0 0-2 2Zm7.5 5-4.5 4.5m4-4 4.5-4.5"
        stroke="#fff" stroke-width="1.5" stroke-linecap="round" stroke-linejoin="round" />
    <path d="M7.75 12.75v3.5h3.5m5-5v-3.5h-3.5" stroke="#fff" stroke-width="1.5" stroke-linecap="round"
        stroke-linejoin="round" />
</svg>
